!!!SOCIAL_FUNCTION:	songs of the while earth reservation
!!!PDT:	1913
!!!OTL: No_170_Work_Steadily.krn
!!!REG: Great_Lakes
!!!LANG: Non-Tone
!!!LING_GROUP: Algonquin
**kern
*staff1
*clefF4
*k[b-e-a-d-g-c-]
*M3/4
8B-\L
8e-\J
8e-\L
8B-\J
=1
4.e-\
8e-\
8d-\L
8e-\J
=2||
*M2/4
4..B-\
16G-\
=3||
*M3/4
2A-\
(A-q/
4e-\)
=4||
*M2/4
8B-\L
8B-\J
8B-\L
8B-\J
=5
(4A-\
4G-\)
=6
4.G-\
8E-\
=7
[2E-\
=8
8E-\L]
8E-\J
12E-\L
12E-\
12c-\J
=9
4.A-\
8E-\
=10||
*M3/4
2A-\
(A-q/
4e-\)
=11||
*M2/4
8B-\L
8B-\J
8B-\L
8B-\J
=12
(4.A-\
8G-\)
=13
4.G-\
8E-\
=14
2E-\
==
*-
